brandings/default/wizard-nextcloud.svg

<?xml version="1.0" encoding="utf-8"?>
<!-- Generator: Adobe Illustrator 24.2.1, SVG Export Plug-In . SVG Version: 6.00 Build 0)  -->
<svg version="1.1" id="Calque_1" xmlns="http://www.w3.org/2000/svg" xmlns:xlink="http://www.w3.org/1999/xlink" x="0px" y="0px"
	 width="510px" height="400px" viewBox="0 0 510 400" style="enable-background:new 0 0 510 400;" xml:space="preserve">
<style type="text/css">
	.st0{fill:#359B6B;}
	.st1{fill:url(#SVGID_1_);}
	.st2{fill:url(#SVGID_2_);}
	.st3{fill:url(#SVGID_3_);}
	.st4{fill:url(#SVGID_4_);}
</style>
<rect class="st0" width="510" height="400"/>
<g>
	<g>
		<g>
			<g>
				
					<linearGradient id="SVGID_1_" gradientUnits="userSpaceOnUse" x1="207" y1="441.4314" x2="207" y2="670.9314" gradientTransform="matrix(1 0 0 -1 0 766.8814)">
					<stop  offset="1.901455e-03" style="stop-color:#FFFFFF"/>
					<stop  offset="1" style="stop-color:#FFFFFF;stop-opacity:0.7"/>
				</linearGradient>
				<path class="st1" d="M343.5,179.6c-9-47.7-47.9-83.6-94.5-83.6c-41.2,0-76.4,28.4-90.2,67.8C52.2,145.4,34.7,321.4,147,325.4
					c4.7,0,9.3-0.3,13.6-1c87.1-12.6,96.7-145.8,181.9-144.7c0.4,0,0.7,0,1.1,0L343.5,179.6z"/>
			</g>
			<g>
				
					<linearGradient id="SVGID_2_" gradientUnits="userSpaceOnUse" x1="288.7014" y1="587.1382" x2="288.7014" y2="442.1763" gradientTransform="matrix(1 0 0 -1 0 766.8814)">
					<stop  offset="1.901455e-03" style="stop-color:#FFFFFF"/>
					<stop  offset="1" style="stop-color:#FFFFFF;stop-opacity:0.7"/>
				</linearGradient>
				<path class="st2" d="M160.5,324.4c87.1-12.6,96.7-145.8,181.9-144.7c0.4,0,0.7,0,1.1,0c106.1,2.2,86.3,144.2,10,144.8
					C293,324.9,160.5,324.4,160.5,324.4"/>
			</g>
		</g>
		<g>
			
				<linearGradient id="SVGID_3_" gradientUnits="userSpaceOnUse" x1="351.9768" y1="632.9923" x2="439.5768" y2="632.9923" gradientTransform="matrix(1 0 0 -1 0 766.8814)">
				<stop  offset="1.901455e-03" style="stop-color:#FFFFFF"/>
				<stop  offset="1" style="stop-color:#FFFFFF;stop-opacity:0.7"/>
			</linearGradient>
			<path class="st3" d="M439.6,102.4c-3.2-0.4-6.1-0.8-9.1-1c-15-1.3-29.8-0.9-44.3,3.7c-9.1,2.9-17.1,7.5-22.8,15.4
				c-5.3,7.5-8.4,15.9-10,24.9c-0.7,4.2-1.1,8.5-1.4,13c14.4-15.9,31.3-28.5,49.5-39.4c-16.5,13-31.7,27.1-43.2,45.1
				c0.5,0.3,0.9,0.5,1.2,0.6c13.6,3.5,27,3.7,39.9-2.7c10.5-5.2,18.1-13.1,21.8-24.4c1.4-4.4,2.7-8.8,4-13.2
				c2.4-8.2,6.9-15,13.4-20.6c0.2-0.2,0.4-0.3,0.6-0.5C439.2,103,439.3,102.9,439.6,102.4z"/>
			
				<linearGradient id="SVGID_4_" gradientUnits="userSpaceOnUse" x1="339.8017" y1="664.9314" x2="372.3529" y2="664.9314" gradientTransform="matrix(1 0 0 -1 0 766.8814)">
				<stop  offset="1.901455e-03" style="stop-color:#FFFFFF"/>
				<stop  offset="1" style="stop-color:#FFFFFF;stop-opacity:0.7"/>
			</linearGradient>
			<path class="st4" d="M350,74.7c0,0.3-0.1,0.6-0.1,0.9c0.2,5-1.4,9.6-3.9,13.9c-1.4,2.4-2.9,4.8-4,7.3c-3.6,7.8-2.5,15.4,1.6,22.7
				c2.2,3.9,5.3,7.1,9.2,9.9c2.5-5.1,6.2-9.4,5.8-15.5c-0.3-5.1-0.1-10.3-0.1-15.7c0.8,6,1.7,11.9,2.5,18c0.6-0.5,1.1-0.9,1.6-1.3
				c2.7-2,5.3-4.2,8.1-6c1.4-0.9,1.8-1.7,1.5-3.3c-0.8-5.2-3.1-9.9-6-14.2c-4.1-6.2-9.3-11.5-15.1-16.2c-0.2-0.2-0.5-0.4-0.8-0.6
				C350.4,74.7,350.2,74.7,350,74.7z"/>
		</g>
	</g>
</g>
</svg>

<?xml version="1.0" encoding="UTF-8" standalone="no"?>
<!DOCTYPE svg PUBLIC "-//W3C//DTD SVG 1.1//EN" "http://www.w3.org/Graphics/SVG/1.1/DTD/svg11.dtd">
<svg width="100%" height="100%" viewBox="0 0 510 510" version="1.1" xmlns="http://www.w3.org/2000/svg" xmlns:xlink="http://www.w3.org/1999/xlink" xml:space="preserve" xmlns:serif="http://www.serif.com/" style="fill-rule:evenodd;clip-rule:evenodd;stroke-linejoin:round;stroke-miterlimit:2;">
    <g transform="matrix(1,0,0,1,0,44.3)">
        <g transform="matrix(1.00592,0,0,1.00592,20.1183,17.0609)">
            <rect x="-20" y="-61" width="507" height="507" style="fill:none;"/>
        </g>
        <g transform="matrix(1,0,0,1,0,10.7)">
            <rect x="0" y="0" width="510" height="400" style="fill:rgb(53,155,107);"/>
        </g>
        <g transform="matrix(1,0,0,1,-0.0231694,10.7)">
            <g>
                <path d="M343.5,179.6C334.5,131.9 295.6,96 249,96C207.8,96 172.6,124.4 158.8,163.8C52.2,145.4 34.7,321.4 147,325.4C151.7,325.4 156.3,325.1 160.6,324.4C247.7,311.8 257.3,178.6 342.5,179.7L343.6,179.7L343.5,179.6Z" style="fill:url(#_Linear1);fill-rule:nonzero;"/>
                <path d="M160.5,324.4C247.6,311.8 257.2,178.6 342.4,179.7L343.5,179.7C449.6,181.9 429.8,323.9 353.5,324.5C293,324.9 160.5,324.4 160.5,324.4" style="fill:url(#_Linear2);fill-rule:nonzero;"/>
            </g>
            <g>
                <path d="M439.6,102.4C436.4,102 433.5,101.6 430.5,101.4C415.5,100.1 400.7,100.5 386.2,105.1C377.1,108 369.1,112.6 363.4,120.5C358.1,128 355,136.4 353.4,145.4C352.7,149.6 352.3,153.9 352,158.4C366.4,142.5 383.3,129.9 401.5,119C385,132 369.8,146.1 358.3,164.1C358.8,164.4 359.2,164.6 359.5,164.7C373.1,168.2 386.5,168.4 399.4,162C409.9,156.8 417.5,148.9 421.2,137.6C422.6,133.2 423.9,128.8 425.2,124.4C427.6,116.2 432.1,109.4 438.6,103.8C438.8,103.6 439,103.5 439.2,103.3C439.2,103 439.3,102.9 439.6,102.4Z" style="fill:url(#_Linear3);fill-rule:nonzero;"/>
                <path d="M350,74.7C350,75 349.9,75.3 349.9,75.6C350.1,80.6 348.5,85.2 346,89.5C344.6,91.9 343.1,94.3 342,96.8C338.4,104.6 339.5,112.2 343.6,119.5C345.8,123.4 348.9,126.6 352.8,129.4C355.3,124.3 359,120 358.6,113.9C358.3,108.8 358.5,103.6 358.5,98.2C359.3,104.2 360.2,110.1 361,116.2C361.6,115.7 362.1,115.3 362.6,114.9C365.3,112.9 367.9,110.7 370.7,108.9C372.1,108 372.5,107.2 372.2,105.6C371.4,100.4 369.1,95.7 366.2,91.4C362.1,85.2 356.9,79.9 351.1,75.2C350.9,75 350.6,74.8 350.3,74.6C350.4,74.7 350.2,74.7 350,74.7Z" style="fill:url(#_Linear4);fill-rule:nonzero;"/>
            </g>
        </g>
    </g>
    <defs>
        <linearGradient id="_Linear1" x1="0" y1="0" x2="1" y2="0" gradientUnits="userSpaceOnUse" gradientTransform="matrix(1.40528e-14,-229.5,229.5,1.40528e-14,207,325.45)"><stop offset="0" style="stop-color:white;stop-opacity:1"/><stop offset="0" style="stop-color:white;stop-opacity:1"/><stop offset="1" style="stop-color:white;stop-opacity:0.7"/></linearGradient>
        <linearGradient id="_Linear2" x1="0" y1="0" x2="1" y2="0" gradientUnits="userSpaceOnUse" gradientTransform="matrix(8.87636e-15,144.962,-144.962,8.87636e-15,288.701,179.743)"><stop offset="0" style="stop-color:white;stop-opacity:1"/><stop offset="0" style="stop-color:white;stop-opacity:1"/><stop offset="1" style="stop-color:white;stop-opacity:0.7"/></linearGradient>
        <linearGradient id="_Linear3" x1="0" y1="0" x2="1" y2="0" gradientUnits="userSpaceOnUse" gradientTransform="matrix(87.6,0,0,87.6,351.977,133.889)"><stop offset="0" style="stop-color:white;stop-opacity:1"/><stop offset="0" style="stop-color:white;stop-opacity:1"/><stop offset="1" style="stop-color:white;stop-opacity:0.7"/></linearGradient>
        <linearGradient id="_Linear4" x1="0" y1="0" x2="1" y2="0" gradientUnits="userSpaceOnUse" gradientTransform="matrix(32.5512,0,0,32.5512,339.802,101.95)"><stop offset="0" style="stop-color:white;stop-opacity:1"/><stop offset="0" style="stop-color:white;stop-opacity:1"/><stop offset="1" style="stop-color:white;stop-opacity:0.7"/></linearGradient>
    </defs>
</svg>
